!!!COM: Hugo Wolf
!!!CNT: Deutscher
!!!TXO: Deutsche 
!!!OTL: Unfall
!!!ODT: 1888/09/25
!!!ONM: No. 15
!!!LYR: Joseph von Eichendorff
!!!ENC: Brian Bice
!!!YOR: 45 Songs on Poems of Goethe and Eichendorff, Dover Publications, 1995
!!NB: Vocal melody and text only encoded.
**kern	**silbe
*clefG2	*
*k[b-]	*
*M4/8	*
=0	=0
4.r	.
{8a	{Ich
=1	=1
8a	ging
8dd	bei
8bn	Nacht
8cc#	einst
=2	=2
(16dd	u2-
16cc#)	|
(16dd	-ber
16ee)	|
8f	Land,
16r	.
16ff	ein
=3	=3
8ee	Bu2rsch-
8bn	-lein
8bn	traf
8a	ich
=4	=4
(8g#	drau-
8f#)	|
8e}	-ssen,}
16r	.
{16a	{das
=5	=5
8a	hat
8dd	'nen
8bn	Stut-
8cc#	-zen
=6	=6
(16dd	in
16cc#)	|
(16dd	der
16ee)	|
8ff	Hand
8ff	und
=7	=7
8.ff	zielt
16ff	auf
8ff	mich
8ff	voll
=8	=8
4ee	Grau-
8e}	-sen.}
16r	.
{16e	{Ich
=9	=9
8ggn	ren-
8ggn	-ne,
8ff	da
8ee	ich
=10	=10
8dd	mich
8ee	er-
8ff	-bos',
16r	.
16ff	auf
=11	=11
8ff	ihn
8ff	in
8ee	vol-
8dd	-lem
=12	=12
8cc#	Ra-
8bn	|
8a}	-sen,}
{8f	{da
=13	=13
8b-	dru2ckt
8b-	das
8ccn	kek-
8ccn	-ke
=14	=14
8dd-	Bu2rsch-
8dd-	-lein
8gg-	los
8r	.
=15	=15
8r	.
8b-	un
4ff	ich
=16	=16
8r	.
8dd-	stu2rzt'
8r	.
16a	auf
16b-	die
=17	=17
4.g-	Na-
8f}	-sen.}
=19	=19
{8ee-	{Er
16.ee-	a-
32gg-	-ber
[4cc	lacht
=20	=20
16.cc]	|
32dd-	mir
16.ee-	ins
32gg	Ge-
4cc	-sicht,
=21	=21
8b-	dass
16.b-	er
32b-	mich
(16.b-	an-
32cc)	|
(16.dd-	-ge-
32ee-)	|
=22	=22
8ff	schos-
8f}	-sen,}
8r	.
{8f	{Cu-
=23	=23
8b-	-pi-
8b-	-do
8b-	war
8b-	der
=24	=24
8.b-	klei-
16b-	-ne
4dd	Wicht
=25	=25
8r	.
8dd	das
16e	hat
16f	mich
16.g	sehr
32b-	ver-
=26	=26
(4f	-dros-
4et)	|
=27	=27
8d}	-sen.}
8r	.
4r	.
*-	*-
